X: 13061
T: Finnegan's Wake
R: reel
M: 4/4
K: Dmajor
A|:FF F2 E2 D2|F2 A2 B2 c2|d2c2B2A2|F2E2E4|FF F2 E2 D2|F2 A2 B2 c2|d2c2B2A2|B2c2d2A2:|
|:d2dd d2e2|d2c2B2c2|d2dd d2e2|d2c2B4|d2dd d2e2|d2c2B2A2|B2BB B2A2|B2c2d4:|

